images/icons/Antenna.svg

<svg width="60" height="64" viewBox="0 0 60 64" fill="none" xmlns="http://www.w3.org/2000/svg">
<path d="M59.5463 44.1952L42.6599 27.1851L44.534 17.9541C45.0176 18.1429 45.5318 18.2416 46.0508 18.2453H46.0636C48.4482 18.2735 50.404 16.3633 50.4323 13.9788C50.4606 11.5943 48.5503 9.6384 46.1658 9.61013C43.7812 9.582 41.8254 11.4921 41.7971 13.8767C41.7911 14.3869 41.8755 14.8941 42.0466 15.3749L32.1266 16.5856L15.9452 0.32C15.7467 0.117467 15.4757 0.00226667 15.1921 0C14.9121 0.00146667 14.644 0.112933 14.4455 0.3104L11.4204 3.3184C11.004 3.73493 11.004 4.41013 11.4204 4.82667L13.0481 6.47787C6.74201 18.0737 8.79028 32.4335 18.0871 41.8037C18.1724 41.8853 18.2713 41.9513 18.3793 41.9989C18.3121 42.3599 18.2771 42.7261 18.2748 43.0933V55.4667H5.47481C2.53081 55.4701 0.144946 57.856 0.141479 60.8V62.9333C0.141479 63.5224 0.61908 64 1.20815 64H50.2748C50.8639 64 51.3415 63.5224 51.3415 62.9333V60.8C51.338 57.856 48.9522 55.4701 46.0082 55.4667H33.2082V49.9829C35.2134 50.4035 37.2564 50.6179 39.3052 50.6229C44.2215 50.6176 49.0595 49.392 53.3852 47.056L55.0215 48.7019C55.22 48.9044 55.491 49.0196 55.7746 49.0219C56.0546 49.0204 56.3227 48.9089 56.5212 48.7115L59.5463 45.7035C59.9627 45.2869 59.9627 44.6117 59.5463 44.1952ZM44.5596 12.4661C45.395 11.6352 46.7458 11.6389 47.5766 12.4743C48.4075 13.3096 48.4038 14.6604 47.5684 15.4912C47.1686 15.8889 46.6275 16.1121 46.0635 16.112H46.0571C44.879 16.1059 43.9287 15.1459 43.9348 13.9676C43.9378 13.4036 44.1639 12.8639 44.5638 12.4661H44.5596V12.4661ZM42.0487 19.4752L40.8519 25.3664L38.501 23.0016L42.0487 19.4752ZM40.837 17.6715L36.997 21.4891L34.0263 18.5024L40.837 17.6715ZM46.0082 57.6C47.7755 57.6 49.2082 59.0327 49.2082 60.8V61.8667H2.27481V60.8C2.27481 59.0327 3.70748 57.6 5.47481 57.6H46.0082ZM31.0748 53.3333V55.4667H20.4081V53.3333H31.0748ZM20.4081 51.2V43.0933C20.4081 40.5056 22.8007 38.4 25.7415 38.4C28.6823 38.4 31.0748 40.5056 31.0748 43.0933V51.2H20.4081ZM33.2082 47.808V43.0933C33.2082 39.3291 29.8588 36.2667 25.7415 36.2667C23.0793 36.2259 20.59 37.5809 19.1793 39.8389C11.0639 31.2913 9.23641 18.5485 14.6221 8.06467L51.8258 45.4816C46.081 48.404 39.4955 49.2268 33.2082 47.808ZM55.7863 46.4405L54.2834 44.9291L15.1815 5.59147L13.6721 4.07893L15.1815 2.57493L31.0513 18.5344C31.0588 18.5344 31.0631 18.5483 31.0706 18.5536L57.2999 44.9365L55.7863 46.4405Z" fill="#2E2F42"/>
<path d="M25.7511 40.5333H25.7415C23.9742 40.5306 22.5394 41.9612 22.5367 43.7285C22.534 45.4958 23.9646 46.9306 25.7319 46.9333H25.7415C27.5088 46.936 28.9436 45.5054 28.9463 43.7381C28.9489 41.9708 27.5184 40.536 25.7511 40.5333ZM26.4978 44.4896C26.297 44.6893 26.0248 44.801 25.7415 44.8C25.1524 44.7969 24.6774 44.3169 24.6804 43.7278C24.6819 43.4458 24.795 43.176 24.9948 42.977C25.1934 42.7796 25.4615 42.6681 25.7415 42.6666C26.3306 42.6697 26.8056 43.1497 26.8026 43.7388C26.8011 44.0208 26.688 44.2906 26.4882 44.4896H26.4978Z" fill="#4D5AE5"/>
</svg>

<svg xmlns="http://www.w3.org/2000/svg" width="60" height="64" fill="none"><path fill="#2E2F42" d="M59.546 44.195 42.66 27.185l1.874-9.23c.484.188.998.287 1.517.29h.013a4.318 4.318 0 1 0-4.017-2.87l-9.92 1.21L15.945.32a1.066 1.066 0 0 0-.753-.32c-.28.001-.548.113-.747.31L11.42 3.318a1.067 1.067 0 0 0 0 1.509l1.628 1.65a29.885 29.885 0 0 0 5.04 35.327c.084.081.183.147.291.195a6.192 6.192 0 0 0-.104 1.094v12.374h-12.8A5.34 5.34 0 0 0 .14 60.8v2.133C.141 63.523.62 64 1.208 64h49.067c.589 0 1.067-.478 1.067-1.067V60.8a5.34 5.34 0 0 0-5.334-5.333h-12.8v-5.484c2.005.42 4.048.635 6.097.64a29.699 29.699 0 0 0 14.08-3.567l1.637 1.646c.198.202.469.318.753.32.28-.002.548-.113.746-.31l3.025-3.009a1.067 1.067 0 0 0 0-1.508ZM44.56 12.466a2.133 2.133 0 1 1 1.503 3.646h-.006a2.133 2.133 0 0 1-1.493-3.646h-.004Zm-2.511 7.01-1.197 5.89-2.351-2.364 3.548-3.527Zm-1.212-1.804-3.84 3.817-2.97-2.987 6.81-.83ZM46.008 57.6a3.2 3.2 0 0 1 3.2 3.2v1.067H2.275V60.8a3.2 3.2 0 0 1 3.2-3.2h40.533Zm-14.933-4.267v2.134H20.408v-2.134h10.667ZM20.408 51.2v-8.107c0-2.587 2.393-4.693 5.333-4.693 2.941 0 5.334 2.106 5.334 4.693V51.2H20.408Zm12.8-3.392v-4.715c0-3.764-3.35-6.826-7.466-6.826a7.6 7.6 0 0 0-6.563 3.572 27.739 27.739 0 0 1-4.557-31.774l37.204 37.417a27.642 27.642 0 0 1-18.618 2.326Zm22.578-1.367-1.503-1.512L15.181 5.591 13.672 4.08l1.51-1.504 15.87 15.96c.007 0 .011.013.019.019L57.3 44.937l-1.514 1.504Z"/><path fill="#4D5AE5" d="M25.751 40.533h-.01a3.2 3.2 0 0 0-.01 6.4h.01a3.2 3.2 0 0 0 .01-6.4Zm.747 3.957a1.067 1.067 0 0 1-1.818-.762 1.068 1.068 0 0 1 1.061-1.061 1.067 1.067 0 0 1 .747 1.823h.01Z"/></svg>
